packages/elvis-assets-icons/icons/svg/src/han.svg

<svg width="24" height="24" viewBox="0 0 24 24" fill="none" xmlns="http://www.w3.org/2000/svg">
<path d="M23.7592 11.4339L13.699 0.792452C13.2709 0.226415 12.6288 0 11.9866 0C11.3445 0 10.7023 0.339622 10.2742 0.792452L0.214047 11.4339C0.107023 11.5472 0 11.7736 0 12C0 12.2264 0.107023 12.4528 0.214047 12.566C0.32107 12.6792 0.535117 12.7924 0.749164 12.7924C0.963211 12.7924 1.17726 12.6792 1.28428 12.566L3.10368 10.6415V22.0754C3.10368 22.6415 3.53177 22.9811 3.95987 22.9811H6.72006C6.72006 22.9811 7.65652 23.0557 7.65652 22.15C7.65652 21.2443 6.72006 21.283 6.72006 21.283H4.70903V8.94338L11.4515 1.81132C11.5585 1.69811 11.7726 1.5849 11.9866 1.5849C12.0936 1.5849 12.3077 1.69811 12.5217 1.92453C12.5217 1.92453 22.5819 12.566 22.689 12.6792C22.796 12.7924 23.01 12.9056 23.2241 12.9056C23.4381 12.9056 23.6522 12.7924 23.7592 12.6792C24.0803 12.3396 24.0803 11.7736 23.7592 11.4339Z" fill="black"/>
<path d="M15.1973 11.6604C15.8394 11.6604 16.3745 11.0943 16.3745 10.4151C16.3745 9.73584 15.8394 9.1698 15.1973 9.1698C14.5551 9.1698 14.02 9.73584 14.02 10.4151C14.02 11.0943 14.5551 11.6604 15.1973 11.6604Z" fill="black"/>
<path d="M15.1973 20.0377C15.8394 20.0377 16.3745 19.4716 16.3745 18.7924C16.3745 18.1132 15.8394 17.5471 15.1973 17.5471C14.5551 17.5471 14.02 18.1132 14.02 18.7924C14.02 19.4716 14.5551 20.0377 15.1973 20.0377Z" fill="black"/>
<path d="M19.9064 13.9246H18.408V15.5095H19.4783C19.7994 15.5095 20.0134 15.7359 20.0134 16.0755V21.9623C20.0134 22.3019 19.7994 22.5283 19.4783 22.5283H10.8094C10.4883 22.5283 10.2743 22.3019 10.2743 21.9623V16.0755C10.2743 15.7359 10.4883 15.5095 10.8094 15.5095H12.0937V13.9246H10.3813C9.5251 13.9246 8.77594 14.717 8.77594 15.6227V22.3019C8.77594 23.2076 9.5251 24 10.3813 24H19.9064C20.7626 24 21.5117 23.2076 21.5117 22.3019V15.6227C21.5117 14.717 20.7626 13.9246 19.9064 13.9246Z" fill="black"/>
<path d="M15.1973 15.8491C15.8394 15.8491 16.3745 15.283 16.3745 14.6038C16.3745 13.9246 15.8394 13.3585 15.1973 13.3585C14.5551 13.3585 14.02 13.9246 14.02 14.6038C14.02 15.283 14.5551 15.8491 15.1973 15.8491Z" fill="black"/>
</svg>

<svg width="24" height="24" fill="none" xmlns="http://www.w3.org/2000/svg"><path d="M23.76 11.434L13.698.792C13.271.226 12.629 0 11.987 0c-.643 0-1.285.34-1.713.792L.214 11.434A.892.892 0 000 12c0 .226.107.453.214.566a.795.795 0 00.535.226.795.795 0 00.535-.226l1.82-1.925v11.434c0 .567.428.906.856.906h2.76s.937.075.937-.831c0-.906-.937-.867-.937-.867H4.71V8.943l6.742-7.132a.795.795 0 01.536-.226c.107 0 .32.113.535.34l10.167 10.754a.795.795 0 00.535.227.795.795 0 00.535-.227.925.925 0 000-1.245z" fill="#000"/><path d="M15.197 11.66c.642 0 1.178-.566 1.178-1.245 0-.68-.536-1.245-1.178-1.245-.642 0-1.177.566-1.177 1.245 0 .68.535 1.245 1.177 1.245zM15.197 20.038c.642 0 1.178-.566 1.178-1.246 0-.679-.536-1.245-1.178-1.245-.642 0-1.177.566-1.177 1.245 0 .68.535 1.246 1.177 1.246z" fill="#000"/><path d="M19.906 13.925h-1.498v1.584h1.07c.321 0 .535.227.535.567v5.886c0 .34-.214.566-.535.566H10.81c-.32 0-.535-.226-.535-.566v-5.886c0-.34.214-.567.535-.567h1.285v-1.584H10.38c-.856 0-1.605.792-1.605 1.698v6.679c0 .906.75 1.698 1.605 1.698h9.525c.857 0 1.606-.792 1.606-1.698v-6.68c0-.905-.75-1.697-1.606-1.697z" fill="#000"/><path d="M15.197 15.85c.642 0 1.178-.567 1.178-1.246 0-.68-.536-1.245-1.178-1.245-.642 0-1.177.566-1.177 1.245 0 .679.535 1.245 1.177 1.245z" fill="#000"/></svg>
